cached_logos/sauce-labs-adopter.svg

<svg xmlns="http://www.w3.org/2000/svg" role="img" viewBox="-5.98 -5.98 310.70 71.70"><title>Sauce Labs (Adopter) logo</title><g fill-rule="evenodd" clip-path="url(#clip0_235_2342)" clip-rule="evenodd"><path fill="#3DDC91" d="M17.9158 29.9985h12.1045l-5.0014 15.0007h12.1004l5.0023-15.0007H30.0203l5.0023-15.0008h17.5268a7.50623 7.50623 0 0 1 3.419.8252 7.5017 7.5017 0 0 1 2.6672 2.2916 7.48991 7.48991 0 0 1 1.323 3.2551 7.48748 7.48748 0 0 1-.3071 3.5L49.6468 54.8681c-.4979 1.4937-1.4536 2.7929-2.7317 3.7134-1.278.9206-2.8136 1.4158-4.389 1.4154H20.0125l5.0044-14.9946H7.5066a7.51016 7.51016 0 0 1-3.42064-.8244 7.50476 7.50476 0 0 1-2.66893-2.2916 7.49908 7.49908 0 0 1-1.3308-3.2553 7.49748 7.49748 0 0 1 .29973-3.5037L10.3937 5.12884a7.49358 7.49358 0 0 1 2.7296-3.71373c1.2776-.92063 2.8129-1.41576 4.388-1.4151h22.5106L35.0195 14.9977H22.9182l-5.0024 15.0008z"/><path fill="#132322" d="M267.783 49.2301c-3.467 0-6.209-1.8516-7.451-4.7061h-.519v4.1876h-3.155V11.4828h3.208v16.3555h.466c1.294-2.8453 4.036-4.6536 7.451-4.6536h.207c4.66 0 8.436 3.4655 8.436 11.7914v2.4317c0 8.2734-3.829 11.8439-8.383 11.8439l-.26-.0216zm-.673-2.9471c3.573 0 6.108-2.225 6.108-8.7425v-2.7403c0-6.5175-2.535-8.69-6.108-8.69h-.207c-3.517 0-7.037 2.1601-7.037 8.7424v2.6879c0 6.57 3.52 8.7425 7.037 8.7425h.207zM88.5045 49.2301c-7.2441 0-12.2125-3.518-12.2125-11.3779h5.694c0 4.8603 2.0164 6.2058 6.5185 6.2058h.3088c4.2952 0 6.2622-1.293 6.2622-4.811 0-3.5925-3.7047-4.7663-7.1546-5.8593-.5242-.1661-1.0424-.3303-1.5408-.5008-6.1048-2.0707-9.5199-4.811-9.4705-10.449.105-6.2583 4.814-9.5171 10.9218-9.5171h.3088c6.9878 0 11.8018 3.518 11.8018 11.418h-5.6909c0-4.9128-1.8528-6.2583-6.1079-6.2583h-.3087c-3.3658 0-5.1259 1.3455-5.1259 4.3451 0 3.5704 3.1064 4.6566 6.6266 5.7429 6.4845 2.0151 11.4248 4.4993 11.4248 11.0662 0 6.7242-4.8662 9.983-11.956 9.983l-.2995.0124zm37.5235-5.5856h3.829l-1.689 5.0671h-7.213l-.414-3.413h-.617c-1.14 2.4687-3.363 3.9315-6.985 3.9315h-.21c-4.916 0-8.124-2.9471-8.124-7.2921v-.2593c0-4.2925 3.001-6.6193 9.056-7.292l6.883-.8271v-.7252c0-4.0333-1.707-5.4312-4.397-5.4312h-.207c-2.433 0-4.4.9258-4.659 4.4468h-5.799c.617-6.6193 4.968-9.5664 10.662-9.5664h.207c6.105 0 9.677 3.4655 9.677 10.4922v10.8687zm-12.215.7221c5.073 0 6.728-2.7773 6.728-6.5669v-.1049l-6.015.7252c-3.468.4135-4.502 1.4998-4.502 3.1044v.2006c0 1.6541 1.294 2.6354 3.569 2.6354l.22.0062zm39.231 4.3543v-25.922h-5.682v14.8465c0 3.8266-1.862 6.2583-5.434 6.2583h-.207c-2.492 0-4.036-1.4998-4.036-5.0177V22.7989h-5.756v16.5006c0 6.3601 3.156 9.9306 7.97 9.9306h.207c3.208 0 5.441-1.6541 6.676-4.2926h.568v3.7834h5.694zm15.319.5092c-6.315 0-10.712-3.9315-10.712-11.7914v-3.3113c0-7.8629 4.397-11.8438 10.712-11.8438h.105c5.796 0 10.144 3.4655 10.403 9.9306h-5.592c-.102-3.1045-1.81-4.811-4.863-4.811h-.105c-3.468 0-5.071 1.9133-5.071 6.7242v3.3113c0 4.7554 1.603 6.7212 5.071 6.7212h.105c3.053 0 4.761-1.756 4.863-4.808h5.592c-.259 6.4805-4.607 9.8751-10.403 9.8751l-.105.0031zm19.5-11.9488h16.366l.009-3.1539c0-7.8629-4.348-11.8438-10.764-11.8438h-.309c-6.469 0-10.768 3.9809-10.768 11.8438v3.3143c0 7.8599 4.348 11.7914 10.87 11.7914h.441c5.382 0 9.418-3.0026 10.246-8.332h-5.691c-.466 2.4317-2.121 3.4161-4.709 3.4161h-.309c-3.838 0-5.382-1.759-5.382-6.8785v-.1574zm.012-4.0333c.207-4.4993 1.76-5.9991 5.281-5.9991h.308c3.468 0 5.074 1.4998 5.281 5.9991h-10.87zm24.583 12.5165h15.526v2.9471h-18.682V13.4393h3.156v32.3252zm41.353.0525h-3.882V33.0258c0-6.101-2.742-9.8751-9.057-9.8751h-.105c-5.95 0-9.421 3.4131-9.729 8.5327h3.365c.207-3.5149 2.069-5.638 6.263-5.638h.206c4.191 0 5.951 2.5983 5.951 6.789v1.6016l-7.504 1.0369c-5.743.7221-9.316 2.5336-9.316 6.931v.3086c0 4.8635 4.502 6.5176 7.763 6.5176h.207c4.246 0 7.046-1.8115 8.282-4.5518h.568l.259 4.0333h5.762l.967-2.8946zm-6.976-8.4833c0 7.2921-4.141 8.9986-8.485 8.9986l-.207-.003c-3.116 0-4.969-1.3949-4.969-3.6723v-.3086c0-2.4317 2.069-3.5704 6.624-4.2432l7.037-.9258v.1543zm33.114 3.518c0 5.1196 3.619 8.3784 9.573 8.3784h.318c5.28 0 9.007-2.6385 9.007-7.036 0-5.2214-3.986-6.3601-9.056-7.7581-.08-.0222-.16-.0443-.24-.0663-3.064-.8482-5.816-1.6099-5.816-4.4823 0-2.2775 1.81-3.8791 5.277-3.8791h.309c3.891 0 5.744 2.2219 5.744 5.2739h3.106c0-5.0332-3.727-8.1191-8.85-8.1191h-.309c-5.027 0-8.337 2.7403-8.337 6.7243 0 4.8603 3.882 6.1009 8.797 7.4988.122.0334.244.0666.366.0997 3.074.8382 5.949 1.6218 5.949 4.6588 0 2.4287-1.606 4.2401-5.953 4.2401h-.309c-4.502 0-6.42-2.3268-6.42-5.5331h-3.156z"/></g><defs><clipPath id="clip0_235_2342"><path fill="#fff" d="M0 0h298.835v60H0z"/></clipPath></defs></svg>

<svg width="299" height="60" viewBox="0 0 299 60" fill="none" xmlns="http://www.w3.org/2000/svg">
<g clip-path="url(#clip0_235_2342)">
<path fill-rule="evenodd" clip-rule="evenodd" d="M17.9158 29.9985H25.0179H30.0203L25.0189 44.9992H37.1193L42.1216 29.9985L30.0203 29.9985L35.0226 14.9977H52.5494C53.7384 14.9981 54.9103 15.281 55.9684 15.8229C57.0266 16.3648 57.9408 17.1502 58.6356 18.1145C59.3285 19.0794 59.782 20.1951 59.9586 21.3696C60.1353 22.5441 60.03 23.7438 59.6515 24.8696L49.6468 54.8681C49.1489 56.3618 48.1932 57.661 46.9151 58.5815C45.6371 59.5021 44.1015 59.9973 42.5261 59.9969H20.0125L25.0169 45.0023H7.5066C6.31713 45.0022 5.14471 44.7197 4.08596 44.1779C3.02721 43.6362 2.11244 42.8507 1.41703 41.8863C0.721624 40.9219 0.265499 39.8062 0.0862333 38.631C-0.0930322 37.4559 0.00969137 36.255 0.385955 35.1273L10.3937 5.12884C10.8907 3.63512 11.8457 2.33574 13.1233 1.41511C14.4009 0.494477 15.9362 -0.000645949 17.5113 6.32473e-07H40.0219L35.0195 14.9977H22.9182L17.9158 29.9985Z" fill="#3DDC91"/>
<path fill-rule="evenodd" clip-rule="evenodd" d="M267.783 49.2301C264.316 49.2301 261.574 47.3785 260.332 44.524H259.813V48.7116H256.658V11.4828H259.866V27.8383H260.332C261.626 24.993 264.368 23.1847 267.783 23.1847H267.99C272.65 23.1847 276.426 26.6502 276.426 34.9761V37.4078C276.426 45.6812 272.597 49.2517 268.043 49.2517L267.783 49.2301ZM267.11 46.283C270.683 46.283 273.218 44.058 273.218 37.5405V34.8002C273.218 28.2827 270.683 26.1102 267.11 26.1102H266.903C263.386 26.1102 259.866 28.2703 259.866 34.8526V37.5405C259.866 44.1105 263.386 46.283 266.903 46.283H267.11ZM88.5045 49.2301C81.2604 49.2301 76.292 45.7121 76.292 37.8522H81.986C81.986 42.7125 84.0024 44.058 88.5045 44.058H88.8133C93.1085 44.058 95.0755 42.765 95.0755 39.247C95.0755 35.6545 91.3708 34.4807 87.9209 33.3877C87.3967 33.2216 86.8785 33.0574 86.3801 32.8869C80.2753 30.8162 76.8602 28.0759 76.9096 22.4379C77.0146 16.1796 81.7236 12.9208 87.8314 12.9208H88.1402C95.128 12.9208 99.942 16.4388 99.942 24.3388H94.2511C94.2511 19.426 92.3983 18.0805 88.1432 18.0805H87.8345C84.4687 18.0805 82.7086 19.426 82.7086 22.4256C82.7086 25.996 85.815 27.0822 89.3352 28.1685C95.8197 30.1836 100.76 32.6678 100.76 39.2347C100.76 45.9589 95.8938 49.2177 88.804 49.2177L88.5045 49.2301ZM126.028 43.6445H129.857L128.168 48.7116H120.955L120.541 45.2986H119.924C118.784 47.7673 116.561 49.2301 112.939 49.2301H112.729C107.813 49.2301 104.605 46.283 104.605 41.938V41.6787C104.605 37.3862 107.606 35.0594 113.661 34.3867L120.544 33.5596V32.8344C120.544 28.8011 118.837 27.4032 116.147 27.4032H115.94C113.507 27.4032 111.54 28.329 111.281 31.85H105.482C106.099 25.2307 110.45 22.2836 116.144 22.2836H116.351C122.456 22.2836 126.028 25.7491 126.028 32.7758V43.6445ZM113.813 44.3666C118.886 44.3666 120.541 41.5893 120.541 37.7997V37.6948L114.526 38.42C111.058 38.8335 110.024 39.9198 110.024 41.5244V41.725C110.024 43.3791 111.318 44.3604 113.593 44.3604L113.813 44.3666ZM153.044 48.7209V22.7989H147.362V37.6454C147.362 41.472 145.5 43.9037 141.928 43.9037H141.721C139.229 43.9037 137.685 42.4039 137.685 38.886V22.7989H131.929V39.2995C131.929 45.6596 135.085 49.2301 139.899 49.2301H140.106C143.314 49.2301 145.547 47.576 146.782 44.9375H147.35V48.7209H153.044ZM168.363 49.2301C162.048 49.2301 157.651 45.2986 157.651 37.4387V34.1274C157.651 26.2645 162.048 22.2836 168.363 22.2836H168.468C174.264 22.2836 178.612 25.7491 178.871 32.2142H173.279C173.177 29.1097 171.469 27.4032 168.416 27.4032H168.311C164.843 27.4032 163.24 29.3165 163.24 34.1274V37.4387C163.24 42.1941 164.843 44.1599 168.311 44.1599H168.416C171.469 44.1599 173.177 42.4039 173.279 39.3519H178.871C178.612 45.8324 174.264 49.227 168.468 49.227L168.363 49.2301ZM187.863 37.2813H204.229L204.238 34.1274C204.238 26.2645 199.89 22.2836 193.474 22.2836H193.165C186.696 22.2836 182.397 26.2645 182.397 34.1274V37.4417C182.397 45.3016 186.745 49.2331 193.267 49.2331H193.708C199.09 49.2331 203.126 46.2305 203.954 40.9011H198.263C197.797 43.3328 196.142 44.3172 193.554 44.3172H193.245C189.407 44.3172 187.863 42.5582 187.863 37.4387V37.2813ZM187.875 33.248C188.082 28.7487 189.635 27.2489 193.156 27.2489H193.464C196.932 27.2489 198.538 28.7487 198.745 33.248H187.875ZM212.458 45.7645H227.984V48.7116H209.302V13.4393H212.458V45.7645ZM253.811 45.817H249.929V33.0258C249.929 26.9248 247.187 23.1507 240.872 23.1507H240.767C234.817 23.1507 231.346 26.5638 231.038 31.6834H234.403C234.61 28.1685 236.472 26.0454 240.666 26.0454H240.872C245.063 26.0454 246.823 28.6437 246.823 32.8344V34.436L239.319 35.4729C233.576 36.195 230.003 38.0065 230.003 42.4039V42.7125C230.003 47.576 234.505 49.2301 237.766 49.2301H237.973C242.219 49.2301 245.019 47.4186 246.255 44.6783H246.823L247.082 48.7116H252.844L253.811 45.817ZM246.835 37.3337C246.835 44.6258 242.694 46.3323 238.35 46.3323L238.143 46.3293C235.027 46.3293 233.174 44.9344 233.174 42.657V42.3484C233.174 39.9167 235.243 38.778 239.798 38.1052L246.835 37.1794V37.3337ZM279.949 40.8517C279.949 45.9713 283.568 49.2301 289.522 49.2301H289.84C295.12 49.2301 298.847 46.5916 298.847 42.1941C298.847 36.9727 294.861 35.834 289.791 34.436C289.711 34.4138 289.631 34.3917 289.551 34.3697C286.487 33.5215 283.735 32.7598 283.735 29.8874C283.735 27.6099 285.545 26.0083 289.012 26.0083H289.321C293.212 26.0083 295.065 28.2302 295.065 31.2822H298.171C298.171 26.249 294.444 23.1631 289.321 23.1631H289.012C283.985 23.1631 280.675 25.9034 280.675 29.8874C280.675 34.7477 284.557 35.9883 289.472 37.3862C289.594 37.4196 289.716 37.4528 289.838 37.4859C292.912 38.3241 295.787 39.1077 295.787 42.1447C295.787 44.5734 294.181 46.3848 289.834 46.3848H289.525C285.023 46.3848 283.105 44.058 283.105 40.8517H279.949Z" fill="#132322"/>
</g>
<defs>
<clipPath id="clip0_235_2342">
<rect width="298.835" height="60" fill="white"/>
</clipPath>
</defs>
</svg>
